!!!!SEGMENT: pl-sa--l-1636--095_anonim--omni-die-dic-mariae.krn
!!!cenid: 17xx:802
!!!COM: Anonim
!!!COM-rismID: pe30004985
!!!CDT:
!!!CNT:
!!!OTL: Omni die dic Mariae
!!!PDT:
!!!AGN: Sacred
!!!SMS-siglum: PL-SA
!!!SMS-shelfmark: L 1636
!!!SMS-shelfwork: 095 W
!!!SMS-variant:
!!!SMS-altvar:
!!!NIFC-rismSourceID: 1001087449
!!!NIFC-rismChildID: 1001087449
!!!NIFC-islandoraID:
!!!URL-pdf-islandora:
!!!URL-scan:
!!!ONB-nifc: 44v, skan 0040, s. 3-4
!!!AIN: 1 empty 1 organ
!!!key:
**kern	**kern
*part2	*part1
*staff2	*staff1
*Iempty	*Iorgan
*	*I"Organo
*clefF4	*clefC1
*k[]	*k[]
*G:	*G:
*M2/2	*M2/2
*met(c|)	*met(c|)
*>[A,B,B]	*>[A,B,B]
=1	=1
*^	*^
*>A	*	*>A	*
*2\right	*	*2\right	*
!LO:TX:a:t=P:problem=wszystkie nuty mają caudy z prawej strony	!	!LO:TX:a:t=P:problem=wszystkie nuty mają caudy z prawej strony	!
!	!	!LO:TX:b:Bi:t=Omni die dic Mariae	!
2G\	2GG/	2g 2d/	2rcyy
4D/	2rGGyy	4a/	4f#X\
8BB/L	.	4b/	4g\
8GG/J	.	.	.
*v	*v	*	*
=2	=2	=2
4A\	2cc 2a/	2rcyy
4F#X\	.	.
4G\	4b/	4g\
4D/	4a/	4f#X\
=3	=3	=3
!	!	!LO:TX:a:t=P:problem=note position
4E\	4g/	2e\
4AA/	8a/L	.
.	8g/J	.
2BB/	2f#X/	2d#X\
=4	=4	=4
16E\LL	4g/	4e\
16D\	.	.
16C\	.	.
16BB\JJ	.	.
8AA/L	4a/	4f#X\
8D/J	.	.
!LO:TX:a:t=P:problem=mixed beam	!	!
16E\LL	4b/	4g\
!LO:SIC:s=16F#:v	!	!
16F\	.	.
16G\	.	.
16BB/JJ	.	.
4C/	8cc/L	8a\L
.	8b/J	8g\J
=5	=5	=5
*^	*	*
!	!	!LO:TX:a:t=P:problem=note position	!
4D/	2ryy	2a/	8g\L
.	.	.	16f#Xi\L
.	.	.	16e\JJ
4DD/	.	.	4f#X\
2G/	2GG/	2b 2g 2d/	2ryy
*v	*v	*	*
=6!|:	=6!|:	=6!|:
*>B	*>B	*
4.BB/	4.f#X/	4.d#X\
8C#X/	8e/	8e\
!LO:TX:a:t=P:problem=w źródle niejednoznaczny znak nad nutą; możliwa półnuta 4d#	!	!
4D#X/	4f#/	4d#X\
4BB/	4f#/	4d#\
!!LO:LB:g=original
=7	=7	=7
4E\	4g/	4e\
!	!	!LO:SIC:s=8f#:v
16D\LL	8a/L	8f\L
16E\	.	.
!	!LO:SIC:s=8f#:v	!
16F#Xi\	8f/J	8d\J
16G\JJ	.	.
!	!LO:TX:a:t=P:problem=note position	!
4A\	2e/	8d\L
.	.	16c\L
.	.	16B\JJ
4AA/	.	4c\
=8	=8	=8
*^	*	*
!	!	!LO:SIC:n=1:s=2f#:v	!
2D/	2DD/	2f 2d 2A/	2rAyy
16E\LL	2ryy	4g/	4e\
16D\	.	.	.
16C\	.	.	.
16BB\JJ	.	.	.
!	!	!	!LO:SIC:s=4f#:v
8AA/L	.	4a/	4f\
8D/J	.	.	.
*v	*v	*	*
=9	=9	=9
!LO:TX:a:t=P:problem=mixed beam	!	!
8G\L	4b/	4g\
8BB/J	.	.
16C\LL	8cc/L	8a\L
16D\	.	.
16E\	8b/J	8g\J
16C\JJ	.	.
!	!LO:TX:a:t=P:problem=note position	!
4D/	2a/	8g\L
!	!	!LO:SIC:s=16f#:v
.	.	16f\L
.	.	16e\JJ
4DD/	.	8d\L
.	.	8c\J
*	*v	*v
=10	=10
1G 1D 1GG	1g 1d 1B
!LO:TX:a:t=P:problem=w źródle ozdobna kreska taktowa razem z repetycją	!LO:TX:a:t=P:problem=w źródle ozdobna kreska taktowa razem z repetycją
=:|!	=:|!
*-	*-
!!!system-decoration: [(s1,s2)]
!!!RDF**kern: > = above
!!!RDF**kern: < = below
!!!RDF**kern: i = editorial accidental
!!!EED: Wojciech Jakubiak-Danek
!!!EEV: 2020-12-08
!!!ENC: Andrzej Kubiczek
!!!END: 2020-06-13
!!!YEC: Copyright 2022 Narodowy Instytut Fryderyka Chopina (https://polishscores.org)
!!!YEM: License CC-BY-4.0 (https://creativecommons.org/licenses/by/4.0)
